X:127
T:Lad O'Beirne's Hornpipe
M:C
L:1/8
K:G
Bc|:cBgd BdcB|Agfa gfge|dcec BdcA|GBAG FD (3CB,A,|
G,B,DG BGDB,|CDEG c2 dc|\
(3BcB GB (3ABA FD|1 GBAF G2 Bc :|2 Ggfa gfga ||
bgdg bgdg|afdf afdf|(3gfg fg (3efg dB|GBAG FD (3CB,A,|
G,B,DG BGDB,|CDEG c2 dc|(3BcB GB (3ABA FD|Ggfa gfga|
bgdg bgdg|afdf afdf|g2 fg (3efg dB|GBAG FD (3CB,A,|
G,B,DG BGDB,|CD (3DEG c2 dc|(3BcB GB (3ABA FD|GBAF G2 Bc |>|
